public/img/assets/icons/weather-conditions/sleet.svg

<svg width="120" height="120" viewBox="0 0 120 120" fill="none" xmlns="http://www.w3.org/2000/svg">
<path d="M86.5996 44.7375C86.498 44.7375 86.4133 44.7715 86.3286 44.7715C86.5149 43.8884 86.5996 42.9713 86.5996 42.0203C86.5996 34.5141 80.5361 28.4344 73.0498 28.4344C68.8832 28.4344 65.2079 30.3534 62.7181 33.3253C59.5677 27.2116 53.284 23 45.9502 23C35.466 23 26.9805 31.5082 26.9805 42.0203C26.9805 43.26 27.116 44.4488 27.3362 45.6206C20.8492 47.7604 16.1406 53.8231 16.1406 61.0406C16.1406 70.0413 23.4236 77.3438 32.4004 77.3438H86.5996C95.5764 77.3438 102.859 70.0413 102.859 61.0406C102.859 52.0399 95.5764 44.7375 86.5996 44.7375Z" fill="#3FD5FE"/>
<rect x="54.6751" y="58.8438" width="8.934" height="38.1562" rx="1" fill="#6A9CFF"/>
<rect width="8.96698" height="38.0163" rx="1" transform="matrix(0.498161 -0.867085 0.86496 0.501841 40.4673 72.2704)" fill="#6A9CFF"/>
<rect width="8.96698" height="38.0163" rx="1" transform="matrix(-0.498161 -0.867085 -0.86496 0.501841 78.6236 71.1078)" fill="#6A9CFF"/>
<path fill-rule="evenodd" clip-rule="evenodd" d="M68.9074 76.7996L77.8998 71.6079C78.3781 71.3317 78.542 70.7201 78.2658 70.2418L74.7768 64.1988C74.5007 63.7205 73.8891 63.5566 73.4108 63.8327L63.6775 69.4523V59.8437C63.6775 59.2915 63.2297 58.8438 62.6775 58.8438H55.6995C55.1472 58.8438 54.6995 59.2915 54.6995 59.8437V70.1467L45.7769 64.9953C45.2986 64.7191 44.687 64.883 44.4108 65.3613L40.9219 71.4044C40.6457 71.8827 40.8096 72.4942 41.2879 72.7704L48.2668 76.7996H68.9074Z" fill="#3377FF"/>
</svg>

<svg width="120" height="120" fill="none" xmlns="http://www.w3.org/2000/svg"><path d="M86.6 44.737c-.102 0-.187.035-.271.035.186-.884.27-1.8.27-2.752 0-7.506-6.063-13.586-13.55-13.586-4.166 0-7.841 1.92-10.33 4.891C59.567 27.212 53.283 23 45.95 23c-10.484 0-18.97 8.508-18.97 19.02 0 1.24.136 2.429.356 3.6-6.487 2.14-11.195 8.203-11.195 15.42 0 9.001 7.283 16.304 16.26 16.304H86.6c8.976 0 16.259-7.303 16.259-16.303 0-9.001-7.283-16.303-16.26-16.303Z" fill="#3FD5FE"/><rect x="54.675" y="58.844" width="8.934" height="38.156" rx="1" fill="#6A9CFF"/><rect width="8.967" height="38.016" rx="1" transform="matrix(.49816 -.86708 .86496 .50184 40.467 72.27)" fill="#6A9CFF"/><rect width="8.967" height="38.016" rx="1" transform="matrix(-.49816 -.86708 -.86496 .50184 78.624 71.108)" fill="#6A9CFF"/><path fill-rule="evenodd" clip-rule="evenodd" d="m68.907 76.8 8.993-5.192a1 1 0 0 0 .366-1.366l-3.49-6.043a1 1 0 0 0-1.365-.366l-9.733 5.62v-9.61a1 1 0 0 0-1-1H55.7a1 1 0 0 0-1 1v10.304l-8.923-5.152a1 1 0 0 0-1.366.366l-3.49 6.043a1 1 0 0 0 .367 1.366l6.979 4.03h20.64Z" fill="#37F"/></svg>
